X: 1550
T: Ordu`nun Dereleri
C: Kadir Üstündağ
O: Turkey
F: http://compmusic.upf.edu/node/140
N: acem--turku--duyek--ordunun_dereleri--ordu
N: makam= acem
N: form= turku
N: usul= duyek = 8/4
M: 8/4
L: 1/16
K: C _1/4B   
Q: 1/4=108
%%MIDI tuningsystem comma53
z2 cd e2 e2 eg ge f2 ed  | d2 ef f3/2e/ f{g}e e2 ed ed dc  | 
w:  Or du nun  de re *  le *  *  ri    |  *  Ak sa  yu *  ka *  *  rı  ak *  *  *  sa    | 
cz cd e2 e2 eg ge f2 ed  | d2 ef f3/2e/ f{g}e e2 ed ed dc  | 
w:  *  Or du nun  de re *  le *  *  ri    |  *  Ak sa  yu *  ka *  *  rı  ak *  *  *  sa    | 
cz cd e{g}f fe fe ed ed dc  | cz cd d2 dc ed d_2/4B c2 BA  | 
w:  *  Ver mem  se *  *  ni  *  el *  le *  *  *  re    |  *  Or du  üs tü *  me  *  kalk *  *  sa    | 
Ac _2/4BA BA3 A8  | z2 cd e{g}f fe fe ed ed dc  | 
w:  Sür *  *  me lim_ am man    |  Ver mem  se *  *  ni  *  el *  le *  *  *  re    | 
cz cd d2 dc ed d_2/4B c2 BA  | Ac _2/4BA BA3 A8  | 
w:  *  Or du  üs tü *  me  *  kalk *  *  sa    |  Sür *  *  me lim_ am man    | 
z2 cd ee3 eg ge f2 ed  | d2 ef f3/2e/ f{g}e e2 ed ed dc  | 
w:  Oy  Meh me dim  Meh *  me *  *  dim    |  *  Sa na  küs *  tüm  *  *  de me *  *  *  dim    | 
z2 cd ee3 eg ge f2 ed  | d2 ef f3/2e/ f{g}e e2 ed ed dc  | 
w:  Oy  Meh me dim  Meh *  me *  *  dim    |  *  Sa na  küs *  tüm  *  *  de me *  *  *  dim    | 
z2 cd e{g}f fe fe ed ed dc  | cz cd d2 dc ed d_2/4B c2 BA  | 
w:  Be ni  sa *  *  na  *  seç *  miş *  *  *  ler    |  *  Val la hi  ben  *  de *  me *  *  dim    | 
Ac _2/4BA BA3 A8  | z2 cd e{g}f fe fe ed ed dc  | 
w:  Sür *  *  me lim_ am man    |  Be ni  sa *  *  na  *  seç *  miş *  *  *  ler    | 
cz cd d2 dc ed d_2/4B c2 BA  | Ac _2/4BA BA3 A8  | 
w:  *  Val la hi  ben  *  de *  me *  *  dim    |  Sür *  *  me lim_ am man    | 
z2 cd e2 e2 eg ge f2 ed  | d2 ef f3/2e/ f{g}e e2 ed ed dc  | 
w:  Or du nun  de re *  le *  *  ri    |  *  Ak sa  yu *  ka *  *  rı  ak *  *  *  sa    | 
cz cd e2 e2 eg ge f2 ed  | d2 ef f3/2e/ f{g}e e2 ed ed dc  | 
w:  *  Or du nun  de re *  le *  *  ri    |  *  Ak sa  yu *  ka *  *  rı  ak *  *  *  sa    | 
cz cd e{g}f fe fe ed ed dc  | cz cd d2 dc ed d_2/4B c2 BA  | 
w:  *  Ver mem  se *  *  ni  *  el *  le *  *  *  re    |  *  Or du  üs tü *  me  *  kalk *  *  sa    | 
Ac _2/4BA BA3 A8  | z2 cd e{g}f fe fe ed ed dc  | 
w:  Sür *  *  me lim_ am man    |  Ver mem  se *  *  ni  *  el *  le *  *  *  re    | 
cz cd d2 dc ed d_2/4B c2 BA  | Ac _2/4BA BA3 A8  | 
w:  *  Or du  üs tü *  me  *  kalk *  *  sa    |  Sür *  *  me lim_ am man    | 
z2 cd ee3 eg ge f2 ed  | d2 ef f3/2e/ f{g}e e2 ed ed dc  | 
w:  Oy  Meh me dim  Meh *  me *  *  dim    |  *  Sa na  küs *  tüm  *  *  de me *  *  *  dim    | 
z2 cd ee3 eg ge f2 ed  | d2 ef f3/2e/ f{g}e e2 ed ed dc  | 
w:  Oy  Meh me dim  Meh *  me *  *  dim    |  *  Sa na  küs *  tüm  *  *  de me *  *  *  dim    | 
z2 cd e{g}f fe fe ed ed dc  | cz cd d2 dc ed d_2/4B c2 BA  | 
w:  Be ni  sa *  *  na  *  seç *  miş *  *  *  ler    |  *  Val la hi  ben  *  de *  me *  *  dim    | 
Ac _2/4BA BA3 A8  | z2 cd e{g}f fe fe ed ed dc  | 
w:  Sür *  *  me lim_ am man    |  Be ni  sa *  *  na  *  seç *  miş *  *  *  ler    | 
cz cd d2 dc ed d_2/4B c2 BA  | Ac _2/4BA BA3 A8  | 
w:  *  Val la hi  ben  *  de *  me *  *  dim    |  Sür *  *  me lim_ am man    | 
|


